!!!COM: Robert Franz
!!!CNT: Deutscher
!!!TXO: Deutsche 
!!!OTL: "Die Rose, die Lilie"
!!!OPS: Op. 34
!!!ONM: No. 5
!!!ONB: Original key: F# Major
!!!LYR: H. Heine
!!!ENC: Brian Bice
!!!YOR: Vocal Album, G. Schirmer, Inc., 1907
!!!ODT: 1861/
!!NB: Vocal melody and text only encoded.
**kern	**silbe
*clefG2	*
*k[f#c#g#d#]	*
*M6/8	*
=0	=0
4.r	.
4r	.
{8B	{Die
=1	=1
8.g#	Ro-
16f#	-se,
8e	die
8.b	Li-
16a	-lie,
8g#	die
=2	=2
8.ee	Tau-
16dd#	-be,
8cc#	die
8.b	Son-
16a}	-ne,}
{8g#	{die
=3	=3
8.f#	liebt'
16g#	ich
8a	einst
8.g#	al-
16f#	-le
8e	in
=4	=4
(4.d#	Lie-
4f#)	|
8e	-bes-
=5	=5
(4.d#	-won-
4.c#)	|
=6	=6
4b}	-ne.}
{8d#	{Ich
8.f#	lieb'
16e	sie
8d#	night
=7	=7
[4.c#	mehr,
8c#]}	|}
8r	.
8r	.
=8	=8
4.r	.
4r	.
{8a	{ich
=9	=9
8.g#	lie-
16a	-be
8b	al-
8.cc#	-lei-
16dd#}	-ne}
{8e	{die
=10	=10
8.f#	Klei-
16g#	-ne,
8a	die
8.b	Fei-
16cc#}	-ne,}
{8dd#	{die
=11	=11
8.e	Rei-
16f#	-ne,
8g#	die
8.a	Ei-
16b}	-ne,}
{8cc#	{sie
=12	=12
4.b	sel-
4.a	-ber,
=13	=13
(4g#	al-
16a	|
16g#	|
4f#)	|
8g#	-ler
=14	=14
(4.b	Lie-
4a)	|
8g#	-be
=15	=15
4.g#	Bron-
4f#}	-ne,}
{8f#	{ist
=16	=16
8.g#	Ro-
16f#	-se
8e	und
8.b	Li-
16a	-lie
8g#	und
=17	=17
4.cc#	Tau-
4f#	-be
8g#	und
=18	=18
(4.a	Son-
4.d#)	|
=19	=19
[4.e	-ne.
8e]}	|}
8r	.
*-	*-
